X: 80
T:La Riviere
M:3/4
L:1/4
C:Patrick Bouffard
R:Waltz
K:G
(G3|G2)A|(B3|B2)c|(d3|d)gf|e2(d|d)ed|c2A|ABc|B>c d/B/|G2B|A2(D|D)EF|1A3|
AGF:|2G3|
GFG|:E>FG|ABc|B2(G|G)FG|A2(D|1D)ED|B2G|GFG:|2F2D||
